X:145
T:San Antonia Rose
C:Bob Wills - Arr. John Baldry
N:TablEdited by Kim Davis
L:1/8
Q:1/4=225
M:4/4
K:C
z6 A,_B, | "G"B,G zG G2 DE | GE DC B,G, A,B, | "C"CB, CD ED CB, | "A"A,2 (3A,A,A, [E2A,2] F2 | 
"D"(3^FFF (3FFF (3FFF (3EEE | D4 ^DE =D2 | "G"B,2 (3DDD (3DDD (3DDD | z2 D2 E2 ^F2 | 
G^F GA BA Bc | d^c de ga ge | "C"d^c =cB AG ^F=F | "A"(3EEE (3EEE E2 e2 | (3"D"[a^f][af][af] (3[af][af][af] (3[af][af][af] (3[ge][ge][ge] | 
(3[^fd][fd][fd] (3[fd][fd][fd] [g2e2] [f2d2] | "G"[^f2d2] (3[bg][bg][bg] (3[bg][bg][bg] (3[bg][bg][bg] | 
z2 [b2g2] ^f2 g2 | (3"D"aaa (3aaa (3aaa (3aaa | (3ggg (3^fff (3fff (3aaa | (3"A7"^c'c'c' (3c'c'c' (3c'c'c' (3=c'c'c' | 
(3"A9"bbb (3bbb (3bbb (3bbb | "A7"b2 ^c'2 c'2 =c'2 | (3"A9"bbb (3bbb ^c'2 b2 | 
"D"ab a^f ed ef | d2 A2 B2 ^c2 | de ^cd Bc AB | ^FD GF EF D2 | "A7"^CD GA ^cA GD | 
"A9"[G2^C2] [G2C2] [G2C2] B,=C | "A7"^CA z=C B,G B,_B, | "A9"A,^F A,^G, =G,A, ^CE | 
"D"D2 EF ^FA BA | "D7"[^f2d2] (3[fc][fc][fc] (3[fc][fc][fc] [f2c2] | 


